Icons/ESL/Slices/Icon SVG.svg

﻿<?xml version="1.0" encoding="utf-8"?>
<!DOCTYPE svg PUBLIC "-//W3C//DTD SVG 1.1//EN" "http://www.w3.org/Graphics/SVG/1.1/DTD/svg11.dtd">
<svg xmlns="http://www.w3.org/2000/svg" xmlns:xlink="http://www.w3.org/1999/xlink" version="1.1" baseProfile="full" width="256" height="256" viewBox="0 0 256.00 256.00" enable-background="new 0 0 256.00 256.00" xml:space="preserve">
	<path fill="#E6003C" fill-opacity="1" stroke-width="0.2" stroke-linejoin="round" d="M 35.678,6.61214e-005L 256.086,0.0299123L 220.053,256L -0.313558,256.412L 35.678,6.61214e-005 Z "/>
	<path fill="#FFFFFF" fill-opacity="1" stroke-width="0.2" stroke-linejoin="miter" stroke="#FFFFFF" stroke-opacity="1" d="M 55.9999,72L 200,72C 200,77.4916 200,82.9832 204,92.3165C 208,101.65 216,114.825 216,128.158C 216,141.49 208,154.98 204,164.314C 200,173.647 200,178.824 200,184L 55.9999,184C 55.9999,178.46 55.9999,172.919 51.9999,163.586C 47.9999,154.252 39.9999,141.126 39.9999,127.85C 39.9999,114.575 47.9999,101.149 51.9999,91.816C 55.9999,82.4826 55.9999,77.2413 55.9999,72 Z "/>
	<g>
		<path fill="#E6003C" fill-opacity="1" stroke-width="0.2" stroke-linejoin="round" d="M 97.9782,166.975C 107.306,166.958 114.556,164.699 119.728,160.197C 124.899,155.696 127.524,149.055 127.602,140.275C 127.503,132.184 125.378,126.072 121.227,121.938C 117.076,117.805 111.491,115.732 104.471,115.718C 101.65,115.748 98.9447,116.241 96.3566,117.197C 93.7685,118.152 91.5309,119.391 89.6439,120.914L 89.427,120.803L 90.4414,102.754L 123.015,102.754L 123.015,89.3525L 78.1506,89.3525L 76.7036,132.497L 86.8248,133.399C 90.2444,129.792 94.3487,127.988 99.1377,127.988C 103.981,128.165 107.339,129.616 109.21,132.342C 111.082,135.069 111.976,138.014 111.891,141.177C 111.904,145.095 110.691,148.307 108.254,150.816C 105.817,153.324 102.082,154.62 97.0506,154.705C 93.702,154.735 90.4594,154.393 87.3226,153.676C 84.1857,152.96 80.7225,151.687 76.9329,149.858L 72.4606,161.241C 76.9629,163.337 81.2241,164.823 85.2443,165.699C 89.2645,166.576 93.5091,167.001 97.9782,166.975 Z "/>
	</g>
	<g>
		<path fill="#E6003C" fill-opacity="1" stroke-width="0.2" stroke-linejoin="round" d="M 169.611,168.291L 169.611,157.76C 172.31,157.591 174.881,157.157 177.323,156.458C 179.764,155.759 182.392,154.781 185.206,153.525L 183.486,142.078C 180.772,143.163 178.317,143.998 176.119,144.582C 173.921,145.166 171.751,145.515 169.611,145.627L 169.611,110.944C 171.751,111.109 173.921,111.466 176.119,112.017C 178.317,112.568 180.772,113.355 183.486,114.378L 185.206,102.932C 182.392,101.682 179.764,100.719 177.323,100.042C 174.881,99.3643 172.31,98.916 169.611,98.6967L 169.611,88.1672L 163.089,88.1672L 163.089,98.5822C 154.464,99.0305 147.74,101.883 142.916,107.138C 138.092,112.394 135.64,119.424 135.562,128.228C 135.64,137.083 138.092,144.127 142.916,149.361C 147.74,154.595 154.464,157.433 163.089,157.874L 163.089,168.291L 169.611,168.291 Z M 151.272,128.228C 151.31,123.375 152.37,119.46 154.453,116.481C 156.537,113.503 159.415,111.734 163.089,111.173L 163.089,145.398C 159.415,144.797 156.537,143.023 154.453,140.075C 152.37,137.128 151.31,133.179 151.272,128.228 Z "/>
	</g>
</svg>

﻿<svg xmlns="http://www.w3.org/2000/svg" viewBox="0 0 256.00 256.00" enable-background="new 0 0 256.00 256.00"><g stroke-width=".2"><path fill="#e6003c" stroke-linejoin="round" d="m35.678 0l220.41.03-36.03 255.97-220.37.412 35.992-256.41"/><path fill="#fff" stroke="#fff" d="m56 72h144c0 5.492 0 10.983 4 20.317 4 9.334 12 22.508 12 35.841 0 13.332-8 26.822-12 36.16-4 9.333-4 14.51-4 19.686h-144c0-5.54 0-11.08-4-20.414-4-9.334-12-22.46-12-35.736 0-13.275 8-26.701 12-36.03 4-9.333 4-14.575 4-19.816Z"/><g fill="#e6003c" stroke-linejoin="round"><path d="m72 99.43c37.871 0 68.57 30.7 68.57 68.57h11.429c0-44.18-35.817-80-80-80v11.429"/><path d="m72 122.29c25.25 0 45.714 20.467 45.714 45.714h11.429c0-31.559-25.584-57.14-57.14-57.14v11.429"/><path d="m72 133.71v11.429c12.624 0 22.857 10.233 22.857 22.857h11.429c0-18.935-15.351-34.29-34.29-34.29"/></g></g></svg>
